X: 1
T:Om sommaren sk\"ona
C:anon.
O:Sweden
Z:Transcribed by Frank Nordberg - http://www.musicaviva.com
M:6/8
L:1/8
Q:104
K:Cm
G|"Cm"c>cc cde|"Fm7"edc "G7"d2f|"Cm"g>ag gfe|"D7"e3"G7"d2:|g|"Cm"e>fe "Eb7"efg|
"F7"gfe"Bb"f2g|"Eb"e>fe "Cm"efg|"Ab"gfe"Bb"f2"G7"g|"Cm"e>dc "Fm6"dc"G7"=B|"Cm"c3c2|]
